X: 190912
T: Sliabh Bloom
S: "First Collection of Traditional Irish Music" (M.Mulvihill)
Z: B.Black
L: 1/8
M: 6/8
R: jig
K: D
f/e/|d2A fec|dAF DFA|GAG EFG|ABc dfe|
d2A fec|dAF DFA|GAG EAG|FDC DFA :|
d2a aga|fbf afd|B2g gfg|Bdg bge|
d2a aga|fbf a2b|afd gec|dAF D2 :|
